X:910
T:Whipman's Rant, The
R:Strathspey
B:The Athole Collection
M:C
L:1/8
K:D
F|D/D/D A>B A>FE>F|D/D/D A>B A>FA>B|A>FA>G A>FE>F|
D/D/D A>B A>Bd>e|f>dg>f e>FE>F|D/D/D A>B AFD||
g|f>dd>f g>fe>g|f>dd>f a/g/f/e/ d>g|f>dd>f g>f ef/g/|a>gf>e d>ef>d|
(3efg (3fga e>FE>F|D/D/D D>d A>FD||

